X:76803
T:Andrew MacNeill of Colonsay 
T:Piobaireachd Andrew MacNeill of Colonsay rewritten as an aire                  
C:TBD
B: 
H:
O:Kevin Fraser
Z:Kevin Fraser
Q:3/8=60
K:HP
M:6/8
L:1/8
R:Reel
U: R = ///
U: r = //
U: V = !accent!
V:M gstem=up stem=down name="Melody" sname="Melody" 
V:H gstem=up stem=down name="Harmony" sname="Harmony"
V:C gstem=up stem=down name="C-Harmony" sname="C-Harmony"
V:S gstem=up stem=down dyn=up stafflines=1 clef=perc middle=G name="Snare" sname="Snare" sname="Snare"
V:B gstem=up stem=down clef=none dyn=up name="Bass" sname="Bass"
V:T gstem=up stem=down clef=none dyn=up name="Tenor" sname="Tenor"
I:MIDI=program 110
%%MIDI gracedivider 4
%%MIDI gchord
%%MIDI beatstring 
% %alignbars 80
% %landscape
% abc2xml.py percussion maps
I:percmap C D 52 triangle
I:percmap A * 60 x
I:percmap c * 47 diamond
I:linebreak $
%
% abcm2ps / abc2svg percussion maps
%
%%map drummap C print=D heads=triangle
%%map drummap A heads=x_head
%%map drummap c heads=diamond
%
%%score {M}
%%MIDI program 109 #bagpipes
%%MIDI vol 100
V:M
| {g}f2 e {g}f a2 | e2 d {g}e f2 | {GdG}B2 A {g}B d2 | {g}e/2 d3/2 {e}B {G}A3  | $
V:M
| {g}f2 e {g}f a2 | {GdG}B2 A {g}B d2 | {gfg}f2 A {gef}e3 | {g}e d2-d3    | $
V:M
| e2 d {g}e f2  | {ag}a2 d {gfg}f a2 | {GdG}B2 A {g}B d2 | {g}e/2 d3/2 {e}B {G}A3  | $
V:M
| {g}f2 a {fg}f2 d | {g}e2 f {gef}e3 | {gfg}f2 A {gef}e3 | {g}e d2-d3    | $
V:M
| e2 d {g}e f2     | {ag}a2 d {gfg}f a | {GdG}B2 A {g}B d2 | {g}e/2 d3/2 {e}B {G}A3  | $
V:M
| {GdG}B2 A {g}B d2 |  e2 d {g}e f2     |  {ag}a2 A {gef}e3 | {g}e d2-d3  | $


